X:1
T:Christmas oratorio
T:Und sie gebar ihren ersten Sohn
T:HWV248N6 "Und sie gebar ihren ersten Sohn”
T:J.S. Bach
T:For more Bach, please see http://bach.ejmaurath.com/ Uploaded from Musescore 2 
T:Sequenced by Edward James Maurath
C:Johann Sebastian Bach
Z:Sequenced by Edward James Maurath
%%score 1 2 { 3 | 4 }
L:1/8
Q:1/4=60
M:4/4
K:G
V:1 tenor nm="Evangelista" snm="TEN"
V:2 bass nm="Bassoon" snm="Bsn."
V:3 treble nm="Harpsichord" snm="Hch."
V:4 bass 
V:1
"^Andante" z B,^DE FF/G/ AF | G2 z E ^CC/C/ CD | EA, z A, A,E, E,/=F,/G,/F,/ | %3
 =F,F, z =F/D/ B,C DB,/G,/ | EE,F, G,2 D,D, z | z4 |] %6
V:2
 ^D,8 | E,8 | ^C,8 | D,4 G,4 | C,2 A,,2 D,2 z2 | D,,2 G,,2 |] %6
V:3
 !arpeggio![F,B,]6 A,2 | [G,B,]4 [G,^C]4 | [A,E]4 z [G,E]3 | =F,3 z [B,D=F] z z2 | %4
 [G,E]2 F, G,3 z2 | [CG][CDF] [B,DG]2 |] %6
V:4
 !arpeggio!^D,8 | E,8 | ^C,8 | D,4 G,4 | C,2 A,,2 D,2 z2 | D,,2 G,,2 |] %6

